X:1
Q:1/4=96
L:1/16
M:3/4
K:C clef=G2
V:1
%%MIDI program 57
G62/16G62/16z/8A62/16z/8|^F4-^F7/4z3/16G2A62/16z/8|B30/8z/8B62/16z/8c62/16z/8|B4-B7/4z3/16A15/8G62/16z/8|
A30/8z/8G62/16z/8^F62/16z/8|G8-G14/4-G/8z3/8|d30/8z/8d62/16z/8d62/16z/8|d4-d7/4z3/16c2B62/16z/8|
c30/8z/8c62/16z/8c62/16z/8|c4-c7/4z3/16B2A62/16z/8|B30/8z/8c2B2A2G2|B4-B7/4z3/16c15/8
L:1/16
M:3/4
K:C clef=F4
V:2
%%MIDI program 48
G,,62/16B,,,62/16z/8C,,62/16z/8|D,,4-D,,7/4z3/16E,,15/8^F,,62/16z/8|G,,30/8z/8E,,62/16z/8C,,62/16z/8|D,,4-D,,7/4z3/16^D,,15/8E,,62/16z/8|
C,,30/8z/8D,,62/16z/8D,,62/16z/8|G,,,8-G,,,14/4-G,,,/8z3/8|G,,,30/8z/8B,,,62/16z/8D,,62/16z/8|G,,,4-G,,,7/4z3/16D,,15/8G,,62/16z/8|
D,,30/8z/8^F,,62/16z/8A,,62/16z/8|D,,4-D,,7/4z3/16G,,15/8D,,62/16z/8|G,,30/8z/8A,,15/8G,,15/8^F,,15/8E,,15/8|D,,15/8C,,15/8B,,,15/8A,,,15/8
L:1/16
M:3/4
K:C clef=F4
V:3
%%MIDI program 71
B,62/16D62/16z/8E62/16z/8|A,4-A,7/4z3/16^C15/8D62/16z/8|D30/8z/8E62/16z/8A,62/16z/8|G,4-G,7/4z3/16C15/8B,62/16z/8|
C30/8z/8B,62/16z/8A,62/16z/8|B,8-B,14/4-B,/8z3/8|B,30/8z/8D62/16z/8B62/16z/8|B4-B7/4z3/16^F15/8G62/16z/8|
^F30/8z/8D62/16z/8^F62/16z/8|^F4-^F7/4z3/16G15/8^F62/16z/8|G30/8z/8^F15/8G15/8D15/8^C15/8|D62/16G15/8^F15/8
L:1/16
M:3/4
K:C clef=F4
V:4
%%MIDI program 60
[B,GG,D]62/16[GB,,B,D]62/16z/8[AC,CE]62/16z/8|[^F-D,-A,-D-]4[^FD,A,D]7/4z3/16[GE,^CA,]15/8[AA,D^F,]62/16z/8|[G,BDG]30/8z/8[BEGE,]62/16z/8[C,cEA]62/16z/8|[D,-D-B-G-]4[D,DBG]7/4z3/16[C^FA^D,]15/8[EB,GE,]62/16z/8|
[AA,EC,]30/8z/8[D,B,GD]62/16z/8[^FA,D,D]62/16z/8|[G-B,-D-G,-]8[G-B,-D-G,-]14/4[GB,DG,]/8z3/8|[DBdGG,,]30/8z/8[B,,dDBG]62/16z/8[D,dDGB]62/16z/8|[d-B-D-G-G,-]4[dBDGG,]7/4z3/16[cD,D^F]15/8[DBGG,]62/16z/8|
[cDD,^F]30/8z/8[cDA^F,]62/16z/8[cDA,^F]62/16z/8|[c-D-A-^F-D,,-D,-]4[cDA^FD,,D,]7/4z3/16[G,G,,BDG]15/8[DD,,A^FD,]62/16z/8|[GBDG,,G,]30/8z/8[cA,,A,^F]2[BGG,,G,]2[AD^F,^F,,]2[GE,E,,^C]2|[BGDD,,D,]31/16[B-G-D-C,,C,]2[BGDB,,]2[c^FA,,]2
Q:1/4=93
L:1/16
M:3/4
K:C clef=G2
V:1
%%MIDI program 57
d62/16z/8
L:1/16
M:3/4
K:C clef=F4
V:2
%%MIDI program 48
G,,,62/16z/8
L:1/16
M:3/4
K:C clef=G2
V:3
%%MIDI program 71
F62/16
L:1/16
M:3/4
K:C clef=F4
V:4
%%MIDI program 60
[dBFG,,]4
Q:1/4=90
L:1/16
M:3/4
K:C clef=G2
V:1
%%MIDI program 57
e2c2
L:1/16
M:3/4
K:C clef=F4
V:2
%%MIDI program 48
C,,62/16z/8
L:1/16
M:3/4
K:C clef=G2
V:3
%%MIDI program 71
E15/8A15/8
L:1/16
M:3/4
K:C clef=F4
V:4
%%MIDI program 60
[C,,-E-C,-eG]2[C,,EC,cA]2
Q:1/4=88
L:1/16
M:3/4
K:C clef=G2
V:1
%%MIDI program 57
B62/16z/8
L:1/16
M:3/4
K:C clef=F4
V:2
%%MIDI program 48
D,,62/16z/8
L:1/16
M:3/4
K:C clef=G2
V:3
%%MIDI program 71
G30/8z/8
L:1/16
M:3/4
K:C clef=F4
V:4
%%MIDI program 60
[DGD,,BD,]4
Q:1/4=84
L:1/16
M:3/4
K:C clef=G2
V:1
%%MIDI program 57
[A-]4(3:2[G-A]/4[G]124/16|[G-]14/4[G]/8z3/8
L:1/16
M:3/4
K:C clef=F4
V:2
%%MIDI program 48
D,,,62/16z/8G,,,8-|G,,,14/4-G,,,/8z3/8
L:1/16
M:3/4
K:C clef=F4
V:3
%%MIDI program 71
D15/8C15/8B,8-|B,14/4-B,/8z3/8
L:1/16
M:3/4
K:C clef=F4
V:4
%%MIDI program 60
[D,,-A-^F-D,-D]2[D,,A^FD,C]2[G-B,-D-G,,-G,-]8|[GB,DG,,G,]4


